public/images/info-bar-advantages__image3.svg

<svg width="106" height="107" viewBox="0 0 106 107" fill="none" xmlns="http://www.w3.org/2000/svg">
<g clip-path="url(#clip0)">
<path d="M24.8994 11.99C25.2044 11.9909 25.5034 11.9063 25.7627 11.7457C26.1272 11.5119 26.3856 11.1447 26.4827 10.7227C26.5797 10.3008 26.5076 9.85754 26.2819 9.48804C26.0561 9.11854 25.6946 8.85215 25.2749 8.74593C24.8551 8.6397 24.4104 8.70209 24.0361 8.91974L24.0319 8.92181C23.7242 9.11051 23.4865 9.39459 23.3551 9.73081C23.2237 10.067 23.2057 10.437 23.3039 10.7844C23.4021 11.1317 23.6112 11.4375 23.8992 11.6552C24.1872 11.8728 24.5384 11.9904 24.8994 11.99Z" fill="black"/>
<path d="M104.919 40.5043C104.213 37.2904 103.174 34.159 101.818 31.1609C100.47 28.189 98.8286 25.3593 96.9175 22.7141C94.9989 20.0621 92.8288 17.6016 90.4375 15.3665C88.0175 13.1065 85.3905 11.0791 82.591 9.31087C79.7412 7.51121 76.7296 5.98151 73.5955 4.74168C70.3807 3.47299 67.0545 2.50748 63.66 1.85774C60.1464 1.18695 56.5771 0.850058 53 0.851568H52.9979C48.9845 0.849845 44.9822 1.27457 41.0584 2.1186C37.2786 2.93229 33.5951 4.14253 30.0692 5.72922C29.723 5.88443 29.4406 6.15379 29.2692 6.49227C29.0978 6.83075 29.0478 7.21782 29.1275 7.58875C29.2073 7.95967 29.412 8.29197 29.7074 8.53007C30.0028 8.76817 30.371 8.89763 30.7504 8.8968C30.9846 8.897 31.2162 8.84688 31.4294 8.74981L31.4356 8.74774C38.2151 5.70088 45.5674 4.13809 53 4.16407C66.2914 4.16407 78.7837 9.00239 88.1746 17.7847C97.5324 26.5441 102.685 38.1772 102.688 50.5391C102.696 62.9961 97.2322 76.5173 88.0732 86.7095C78.3241 97.5621 65.8732 103.539 53.0104 103.539H52.9897C40.1268 103.539 27.6759 97.5621 17.9268 86.7095C8.76778 76.5173 3.30422 62.9961 3.31251 50.5391C3.31458 37.0593 9.58969 24.2647 20.5313 15.4348C20.7007 15.2984 20.8415 15.1299 20.9458 14.9389C21.05 14.748 21.1157 14.5385 21.1389 14.3222C21.1622 14.1059 21.1426 13.8872 21.0813 13.6784C21.0201 13.4697 20.9183 13.2751 20.7818 13.1057C20.6453 12.9364 20.4768 12.7955 20.2859 12.6913C20.095 12.587 19.8854 12.5214 19.6691 12.4981C19.4529 12.4749 19.2341 12.4944 19.0254 12.5557C18.8167 12.617 18.6221 12.7188 18.4527 12.8552C15.6469 15.1146 13.0863 17.6627 10.8132 20.4574C8.55374 23.2343 6.60372 26.2492 4.99774 29.4488C1.70799 35.9922 -0.00362587 43.2152 5.76702e-06 50.5391C0.0101063 54 0.371503 57.4509 1.07864 60.8389C1.79472 64.2786 2.82524 67.6452 4.15719 70.8964C5.50397 74.1882 7.13173 77.3578 9.02243 80.3702C10.922 83.398 13.076 86.2585 15.4611 88.9206C17.8428 91.5789 20.4592 94.0173 23.2786 96.206C26.0857 98.3854 29.1009 100.283 32.2803 101.87C35.461 103.457 38.8068 104.689 42.2572 105.543C49.3128 107.288 56.6872 107.288 63.7429 105.543C67.1932 104.689 70.539 103.457 73.7197 101.87C76.8991 100.283 79.9143 98.3854 82.7214 96.206C85.5408 94.0173 88.1572 91.5789 90.5389 88.9206C92.924 86.2585 95.0781 83.398 96.9776 80.3702C98.8683 77.3578 100.496 74.1882 101.843 70.8964C103.175 67.6452 104.205 64.2786 104.921 60.8389C105.629 57.4509 105.99 54 106 50.5391C106 47.1651 105.638 43.8009 104.919 40.5043Z" fill="black"/>
<path d="M26.5 33.9766C26.9393 33.9766 27.3605 33.8021 27.6711 33.4915C27.9818 33.1809 28.1562 32.7596 28.1562 32.3203C28.1562 31.0025 28.6797 29.7387 29.6116 28.8069C30.5434 27.8751 31.8072 27.3516 33.125 27.3516C34.4428 27.3516 35.7066 27.8751 36.6384 28.8069C37.5703 29.7387 38.0938 31.0025 38.0938 32.3203C38.0938 32.7596 38.2682 33.1809 38.5789 33.4915C38.8895 33.8021 39.3107 33.9766 39.75 33.9766C40.1893 33.9766 40.6105 33.8021 40.9211 33.4915C41.2318 33.1809 41.4062 32.7596 41.4062 32.3203C41.4062 30.124 40.5338 28.0176 38.9807 26.4646C37.4277 24.9115 35.3213 24.0391 33.125 24.0391C30.9287 24.0391 28.8223 24.9115 27.2693 26.4646C25.7162 28.0176 24.8438 30.124 24.8438 32.3203C24.8438 32.7596 25.0182 33.1809 25.3289 33.4915C25.6395 33.8021 26.0607 33.9766 26.5 33.9766Z" fill="black"/>
<path d="M67.9062 32.3203C67.9062 31.0025 68.4297 29.7387 69.3616 28.8069C70.2934 27.8751 71.5572 27.3516 72.875 27.3516C74.1928 27.3516 75.4566 27.8751 76.3884 28.8069C77.3203 29.7387 77.8438 31.0025 77.8438 32.3203C77.8438 32.7596 78.0182 33.1809 78.3289 33.4915C78.6395 33.8021 79.0607 33.9766 79.5 33.9766C79.9393 33.9766 80.3605 33.8021 80.6711 33.4915C80.9818 33.1809 81.1562 32.7596 81.1562 32.3203C81.1562 30.124 80.2838 28.0176 78.7307 26.4646C77.1777 24.9115 75.0713 24.0391 72.875 24.0391C70.6787 24.0391 68.5723 24.9115 67.0193 26.4646C65.4662 28.0176 64.5938 30.124 64.5938 32.3203C64.5938 32.7596 64.7682 33.1809 65.0789 33.4915C65.3895 33.8021 65.8107 33.9766 66.25 33.9766C66.6893 33.9766 67.1105 33.8021 67.4211 33.4915C67.7318 33.1809 67.9062 32.7596 67.9062 32.3203Z" fill="black"/>
<path d="M14.9062 44.7422C14.9062 45.1814 15.0807 45.6027 15.3914 45.9133C15.702 46.2239 16.1232 46.3984 16.5625 46.3984C18.369 46.4239 20.1516 45.9833 21.7383 45.1192C22.5457 50.7455 25.7276 55.9355 30.9033 59.9612C36.8226 64.5656 44.6703 67.1015 53 67.1015C61.3297 67.1015 69.1774 64.5656 75.0975 59.9612C80.2733 55.9355 83.4551 50.7455 84.2625 45.1192C85.849 45.9832 87.6313 46.4237 89.4375 46.3984C89.8768 46.3984 90.298 46.2239 90.6087 45.9133C90.9193 45.6027 91.0938 45.1814 91.0938 44.7422C91.0938 44.3029 90.9193 43.8816 90.6087 43.571C90.298 43.2604 89.8768 43.0859 89.4375 43.0859C84.1919 43.0859 82.8021 38.6677 82.7487 38.4898C82.6889 38.2807 82.5885 38.0854 82.4532 37.9151C82.3179 37.7448 82.1504 37.6028 81.9602 37.4972C81.7701 37.3916 81.561 37.3245 81.3449 37.2997C81.1288 37.275 80.9099 37.293 80.7008 37.3528C80.4917 37.4126 80.2964 37.5131 80.126 37.6483C79.9557 37.7836 79.8137 37.9511 79.7081 38.1413C79.6025 38.3315 79.5355 38.5406 79.5107 38.7567C79.4859 38.9728 79.504 39.1916 79.5638 39.4008C79.9042 40.4992 80.443 41.5259 81.1534 42.4303C81.032 54.2242 68.4501 63.789 53 63.789C37.5499 63.789 24.968 54.2242 24.8466 42.4298C25.557 41.5255 26.0958 40.4988 26.4362 39.4004C26.4982 39.191 26.5181 38.9715 26.4949 38.7544C26.4717 38.5373 26.4058 38.3269 26.301 38.1354C26.1962 37.9438 26.0545 37.7749 25.8842 37.6383C25.7139 37.5017 25.5182 37.4002 25.3085 37.3395C25.0988 37.2788 24.8791 37.2601 24.6622 37.2846C24.4452 37.3091 24.2352 37.3763 24.0443 37.4823C23.8534 37.5882 23.6854 37.7309 23.5498 37.902C23.4142 38.0731 23.3138 38.2694 23.2544 38.4795C23.1979 38.6677 21.8081 43.0859 16.5625 43.0859C16.1232 43.0859 15.702 43.2604 15.3914 43.571C15.0807 43.8816 14.9062 44.3029 14.9062 44.7422Z" fill="black"/>
</g>
<defs>
<clipPath id="clip0">
<rect width="106" height="106" fill="white" transform="translate(0 0.851562)"/>
</clipPath>
</defs>
</svg>

<svg width="106" height="107" fill="none" xmlns="http://www.w3.org/2000/svg"><g clip-path="url(#clip0)" fill="#000"><path d="M24.9 11.99c.304 0 .603-.084.863-.244a1.657 1.657 0 00-1.727-2.826l-.004.002a1.656 1.656 0 00.867 3.068z"/><path d="M104.919 40.504a47.297 47.297 0 00-3.101-9.343 48.95 48.95 0 00-4.9-8.447 50.878 50.878 0 00-6.48-7.347A52.833 52.833 0 0082.59 9.31a54.16 54.16 0 00-8.995-4.57 55.476 55.476 0 00-9.936-2.883A56.718 56.718 0 0053 .852h-.002a56.66 56.66 0 00-11.94 1.267 54.968 54.968 0 00-10.989 3.61 1.656 1.656 0 101.36 3.02l.007-.001A52.16 52.16 0 0153 4.164c13.291 0 25.784 4.838 35.175 13.62 9.357 8.76 14.51 20.393 14.513 32.755.008 12.457-5.456 25.978-14.615 36.17-9.749 10.853-22.2 16.83-35.063 16.83h-.02c-12.863 0-25.314-5.977-35.063-16.83C8.767 76.518 3.304 62.997 3.313 50.54 3.315 37.06 9.59 24.265 20.53 15.435a1.655 1.655 0 00-.245-2.744 1.656 1.656 0 00-1.833.164 51.411 51.411 0 00-7.64 7.602 49.257 49.257 0 00-5.815 8.992A46.9 46.9 0 000 50.539c.01 3.461.372 6.912 1.079 10.3a57.377 57.377 0 003.078 10.057 61.944 61.944 0 004.865 9.474 62.94 62.94 0 006.44 8.55 59.413 59.413 0 007.817 7.286 54.019 54.019 0 009.001 5.664 48.385 48.385 0 009.977 3.673 44.746 44.746 0 0021.486 0 48.386 48.386 0 009.977-3.673 54.019 54.019 0 009.001-5.664 59.413 59.413 0 007.818-7.285 62.935 62.935 0 006.439-8.55 61.965 61.965 0 004.865-9.475 57.364 57.364 0 003.078-10.057 51.072 51.072 0 001.079-10.3 47.09 47.09 0 00-1.081-10.035z"/><path d="M26.5 33.977a1.656 1.656 0 001.656-1.657 4.968 4.968 0 119.938 0 1.656 1.656 0 103.312 0 8.28 8.28 0 10-16.562 0 1.656 1.656 0 001.656 1.657zm41.406-1.657a4.968 4.968 0 119.938 0 1.656 1.656 0 103.312 0 8.28 8.28 0 10-16.562 0 1.656 1.656 0 103.312 0zm-53 12.422a1.656 1.656 0 001.656 1.656c1.807.026 3.59-.415 5.176-1.279.808 5.627 3.99 10.816 9.165 14.842 5.92 4.605 13.767 7.14 22.097 7.14 8.33 0 16.177-2.535 22.097-7.14 5.176-4.026 8.358-9.215 9.166-14.842a10.512 10.512 0 005.174 1.28 1.657 1.657 0 000-3.313 6.813 6.813 0 01-6.688-4.596 1.656 1.656 0 10-3.185.91 9.417 9.417 0 001.59 3.03C81.031 54.224 68.45 63.79 53 63.79s-28.032-9.565-28.153-21.36a9.416 9.416 0 001.59-3.029 1.656 1.656 0 10-3.183-.92 6.814 6.814 0 01-6.692 4.606 1.656 1.656 0 00-1.656 1.656z"/></g><defs><clipPath id="clip0"><path fill="#fff" transform="translate(0 .852)" d="M0 0h106v106H0z"/></clipPath></defs></svg>
